X:8
T:Doctor John Hart
Z: id:dc-ocarolan-5
M:3/4
L:1/8
K:A Major
e2 ce/f/ ec|ed cB A2|B2 A/B/c A/B/c|BA F2 F2|!
ae ab c'b|ab af ae|fa/b/ af ec|B2 ce f2|!
fc ef ec|A2 A2 A2|ec fe e/c/B/A/|B2 Bc B2|!
ed cB A2|Bc BA GF|EA GB Ac|B2 A2 A2|]!
E/C/E/F/ EC B,A,|E2 EF E2|FE FA FE|C2 EF F2|!
AG AB cB|AB cd ed|cd ef ed/c/|B2 GA B2|!
ec AF E/D/C/B,/|A,2 A2 Ac/d/|ec/e/ fe/f/ af|e2 cB B2|!
ed cB A2|Bc BA GF|EA GB Ac|B2 A2 A2|]!